www/assets/icons/emoji_transportation.svg

<svg xmlns="http://www.w3.org/2000/svg" width="24" height="24" viewBox="0 0 24 24" fill='currentColor'><path d="M20.57 10.66c-.14-.4-.52-.66-.97-.66h-7.19c-.46 0-.83.26-.98.66L10 14.77l.01 5.51c0 .38.31.72.69.72h.62c.38 0 .68-.38.68-.76V19h8v1.24c0 .38.31.76.69.76h.61c.38 0 .69-.34.69-.72l.01-1.37v-4.14zm-8.16.34h7.19l1.03 3h-9.25zM12 17c-.55 0-1-.45-1-1s.45-1 1-1 1 .45 1 1-.45 1-1 1m8 0c-.55 0-1-.45-1-1s.45-1 1-1 1 .45 1 1-.45 1-1 1"/><path d="M14 9h1V3H7v5H2v13h1V9h5V4h6z"/><path d="M7 11H5v2h2zm5-6h-2v2h2zM7 15H5v2h2zm0 4H5v2h2z"/></svg>

<svg width="24" height="24" viewBox="0 0 24 24" xmlns="http://www.w3.org/2000/svg" fill='currentColor'><path d="M20.57 10.66C20.43 10.26 20.05 10 19.6 10H12.41C11.95 10 11.58 10.26 11.43 10.66L10 14.77L10.01 20.28C10.01 20.66 10.32 21 10.7 21H11.32C11.7 21 12 20.62 12 20.24V19H20V20.24C20 20.62 20.31 21 20.69 21H21.3C21.68 21 21.99 20.66 21.99 20.28L22 18.91V14.77L20.57 10.66ZM12.41 11H19.6L20.63 14H11.38L12.41 11ZM12 17C11.45 17 11 16.55 11 16C11 15.45 11.45 15 12 15C12.55 15 13 15.45 13 16C13 16.55 12.55 17 12 17ZM20 17C19.45 17 19 16.55 19 16C19 15.45 19.45 15 20 15C20.55 15 21 15.45 21 16C21 16.55 20.55 17 20 17Z"/><path d="M14 9H15V3H7V8H2V21H3V9H8V4H14V9Z"/><path d="M7 11H5V13H7V11Z"/><path d="M12 5H10V7H12V5Z"/><path d="M7 15H5V17H7V15Z"/><path d="M7 19H5V21H7V19Z"/></svg>
